X:77
T:Kitty on the Rail
M:C|
R:reel
C:Ed Yother
C:http://edyother.com
K:Ddor
|: d2 ed fded | cdef edcA | d2 ed fded | cdgc acgc |
d2 ed fded | cdef edcA | fedc AGAB | cAdc AFD2 :|
| (3(DEF) AB cAdc | AG (3(ABA) AGFC | (3(DEF) AB cAdc | AG (3(ABA) ABA2 |
(3(DEF) AB cAdc | AG (3(ABA) AGFC | (3(DEF) AB cAdc | AG (3(ABA) ABc2 |
| ({c}d2)d2 dcAG | (3(ABA) AG (3(ABA) AG | ({c}d2)d2 dcAG | (3(ABc) de f2ff |
({c}d2)d2 dcAG | (3ABA AG (3ABA AG | (3DEF AB cAdc | AFE2 D4 |

%%newpage
%%scale .75
%%staffsep 30

